!!!COM: Ulenberg, Caspar
!!!CDT: 1548/12/24-1617/02/16
!!!OPR: Die Psalmen Davids
!!!ONM: 7
!!!ONM-carmgen: 7
!!!OTL@@LA: Domine Deus meus
!!!OTL-incipit@@DE: Auff dich mein lieber Herr und Got
**kern	**text
*Ivox	*
*clefC4	*
*k[]	*
*M2/1	*
*met(C|)	*
*MM180	*
=-	=-
*xywh-#71:191,239,725,243	*
1A	Auff
2A	dich
2A	mein
=-	=-
2E	lie-
2G	-ber
2F	Herr
2D	und
=-	=-
1E	Got
1r	.
=-	=-
*xywh-#71:197,478,718,240	*
1E	Steht
2F	mein
2E	ver-
=-	=-
2D	-tra-
2C	-wen
1D	in
=-	=-
1F	der
1E	not/
=-	=-
*xywh-#71:196,718,722,223	*
1r	.
1E	Hilff
=-	=-
2A	mir
2A	von
2G	al-
2A	-ler
=-	=-
1B	wi-
1c	-der-
=-	=-
1B	-part/
1r	.
=-	=-
*xywh-#71:194,935,721,227	*
1B	Von
1A	den
=-	=-
1G	die
2c	mich
2B	ver-
=-	=-
2A	-fol-
2A	-gen
1G	hart/
=-	=-
*xywh-#71:198,1155,719,271	*
1r	.
1E	Er-
=-	=-
2G	-ret-
2G	-te
2A	mich
2E	aus
=-	=-
2C	fein-
2D	-des
1F	han-
=-	=-
1E	-den/
1r	.
=-	=-
*xywh-#72:213,220,721,219	*
1G	Daß
2F	er
2E	nicht
=-	=-
2D	nach
2G	der
1A	le-
=-	=-
1B	-wen
1c	weis
=-	=-
*xywh-#72:213,436,717,218	*
1r	.
1c	Mein
=-	=-
2B	seel
2A	er-
2G	-hasch
2F	und
=-	=-
1E	gar
1D	zů-
=-	=-
1C	-reiß/
1r	.
=-	=-
*xywh-#72:210,641,710,219	*
1G	Wenn
1c	kein
=-	=-
1B	not-
2A	-hel-
2G	-ffer
=-	=-
2E	wer
2G	ver-
1F	-han-
=-	=-
0Ell;	-den.
==	==
*-	*-
!!!RDF**kern: l = terminal long
!!!RDF**kern: i = editorial accidental
!!!AGN: Psalm
!!!YOR: https://mdz-nbn-resolving.de/details:bsb11116252
!!!YOO: München, Bayerische Staatsbibliothek
!!!URL-scan: https://www.digitale-sammlungen.de/de/view/bsb11116252?page=70
!!!IIIF: https://api.digitale-sammlungen.de/iiif/presentation/v2/bsb11116252/manifest
!!!EED: Wolfgang Drescher
!!!END: 2023/01/04
!!!ENC: Wolfgang Drescher
!!!EEV: 2023/02/04
!!!title: @{ONM}. @{OTL} / <i>@{OTL-incipit@@DE}</i>